!!!OTL: Jesus Christus Unser Heiland
!!!COL: Orgelbüchlein
**kern	**text
*clefG2	*
*k[]	*
*M4/4	*
=1	=1
4a	Je-
4a	sus
4g	Chris-
4a	tus
=2	=2
4b	un-
4a	ser
4g	Hei-
4f#	.
=3	=3
2e;	land,
4r	.
4g	der
=4	=4
4a	den
4b	Tod
4a	ü-
4g#	ber-
=5	=5
2a;	wand,
4r	.
4dd	ist
=6	=6
8aL	auf-
8bJ	.
4cc	er-
4b	stan-
4a	.
=7	=7
2b;	den,
4r	.
4a	die
=8	=8
4g	Sünd
4a	hat
4b	er
4a	ge-
=9	=9
4g	fan-
4f#	.
4e;	gen.
4g	Ky-
=10	=10
4a	rie
4b	e-
4a	le-
4g#	i-
=11	=11
1a;	son.
==	==
*-	*-
